X:3367
M:3/4
L:1/8
K:G
[| b2 b>(a g)>(f | e2) e>(d c2) | a2 a>(g f)>(e | d)>(e d)>(c B)>A |
G2 G>(B (3ABA) | G2 B>(d g2) | {g}a2 a>(g e)>(f | g2) g2 gz |]
(:musicend:)

Bindningarna är Hallgrens. Hallgren tycks spela konsekvent med ett stråk per taktdel och bindningar låter då mer som upptakter och förslag till tonerna. Det kan dock vara svårt att hitta och hänga med i det stråkmönstret utifrån de utskrivna bindebågarna. Pedagogiskt kanske man då kan ha hjälp av att träna låten så här:

(:music:)
